X:120
T: Túl a vizen egy diófa
M: 2/4
L: 1/8
K: F
ggdd | dcfd | 
ggdd | cdcB | 
BBdd | cBfc | 
dcBc | BGFG | 

